X:1
T:Title
%%score { ( 1 4 5 ) | ( 2 3 ) }
L:1/8
M:6/8
K:D
V:1 treble nm="Grand Piano"
V:4 treble 
V:5 treble 
V:2 bass 
V:3 bass 
V:1
 z3 z2[Q:1/4=84] D | F>ED G>FE | A3 F2 A | Bcd [A,EA]2 [A,DF] |[M:5/8] [A,CE]- [A,CE]3 z | %5
[M:1/8] [A,CE] |[M:3/4] F>E FG FG |[M:7/8] A2 z B3 z |[M:3/4] [CA][F,D] [B,EG] [A,F]2 E | %9
[M:5/8] D- D3 z |[M:1/8] E |[M:3/4] E>E FG [Ac][GB] | [FA]2 [DF] [DFA]2 [A,DF] | %13
 [CE]F G[EG]- [EG]/[DF]/[CE] |[M:5/8] [DF]- [DF]3 z |[M:1/8] [GA] | %16
[M:3/4] [Fd]>[Gc] [Ad][Ge] d[DGB] | [DFA]2 [DF] [DFA]2 [=CDF] | D-[DG] [DB][F,D] z z/ E/ | %19
[M:5/8] D- D3 z |] %20
V:2
 z3 z2 [D,F,A,] | [D,A,D]>[E,G,C][F,A,] [E,A,C]>[F,A,C][G,A,C] | [F,A,D]3 [D,A,D]2 [F,=CD] | %3
 [B,D][^A,E][F,=A,F] z z/ G/D, |[M:5/8] z c[K:treble]B AG |[M:1/8][K:bass] A,, | %6
[M:3/4] [D,A,D]>[C,A,] [D,A,D][E,A,C] [^D,A,=C][E,A,^C] |[M:7/8] [A,D] z [CE] D3 [E,^G,D] | %8
[M:3/4] [A,,G,]B,, G,, A,,2 [A,,G,] |[M:5/8] [D,F,]- [D,F,]3 z |[M:1/8] [A,D] | %11
[M:3/4] [A,C]>[G,A,C] [F,A,D][E,A,E] [A,,G,][C,E,] | F,2 z2 z2 | A,2 z2 z2 | %14
[M:5/8] [D,A,]- [D,A,]3 z |[M:1/8] [C,A,] |[M:3/4] [D,A,]>[E,A,] .[F,=C]2[K:treble] BG, | %17
 z2 A, D,2 D, | z E, .[^G,,=F,]2 .A,>C |[M:5/8] [D,F,]- [D,F,]3 z |] %20
V:3
 x6 | x6 | x6 | .G,3 .C,3 |[M:5/8] A,,- A,,3[K:treble] z |[M:1/8][K:bass] x |[M:3/4] x6 | %7
[M:7/8] F,3 [G,B,] z z2 |[M:3/4] x6 |[M:5/8] x5 |[M:1/8] x |[M:3/4] x6 | D,2- [D,A,] D,2 F, | %13
 z D [A,E] [A,,A,]2 [A,,A,] |[M:5/8] x5 |[M:1/8] x |[M:3/4] z2 z .[G,B,]3[K:treble] | D,4 z2 | %18
 G,,2 z A,,2 A,, |[M:5/8] x5 |] %20
V:4
 x6 | x6 | x6 | x6 |[M:5/8] x5 |[M:1/8] x |[M:3/4] x6 |[M:7/8] z D^A z G,2 B |[M:3/4] z2 z D C2 | %9
[M:5/8] x5 |[M:1/8] x |[M:3/4] x6 | x6 | x6 |[M:5/8] x5 |[M:1/8] x |[M:3/4] x6 | x6 | %18
 .[B,E]2 z2 [CF]2 |[M:5/8] x5 |] %20
V:5
 x6 | x6 | x6 | x6 |[M:5/8] x5 |[M:1/8] x |[M:3/4] x6 |[M:7/8] x7 |[M:3/4] x6 |[M:5/8] x5 | %10
[M:1/8] x |[M:3/4] x6 | x6 | x6 |[M:5/8] x5 |[M:1/8] x |[M:3/4] x6 | x6 | z2 z2 z G, |[M:5/8] x5 |] %20

